!!!SOCIAL_FUNCTION:	songs connected with the cure of the sick
!!!PDT:	1909
!!!OTL: No_78_Healing_Song.krn
!!!REG: Great_Lakes
!!!LANG: Non-Tone
!!!LING_GROUP: Algonquin
**kern
*staff1
*clefG2
*k[]
*M3/4
8g/L
8g/
8g/J
=1
4.g/
8e/
4e/
=2||
*M4/4
4.e/
8e/
8c/L
8d/
8d/
8d/J
=3
2d/
8r
8e/L
8e/
8e/J
=4||
*M3/4
4.e/
8c/
4c/
=5||
*M4/4
4.c/
8c/
8A/L
8c/
8c/
8c/J
=6
2c/
8r
8d/L
8d/
8c/J
*clefF4
=7||
*M3/4
4.A-\
8G\
4G\
=8||
*M4/4
4.G\
8G\
8E\L
8G\
8G\
8E\J
=9||
*M3/4
4.E\
8E\
8E\L
8E\J
=10
4.E\
8C/
4C/
=11||
*M3/8
4.C/
==
*-
